!!!OTL: Stworzyciel wszechmoczny
**kern
*staff1
=1-
*clefC1
*k[b-]
*met(c|)
*M2/2
1d
2a\
2a\
2b-\
2a\
2f/
2g\
=2
2a\
2b-\
2a\
2a\
1d
=3
!!linebreak:original
2r
2d/
2d/
2a\
2b-\
2b-\
2f/
2f/
2b-\
2f/
=4
2g\
2g\
1a
=5
!!linebreak:original
2r
2f/
2f/
2f/
2b-\
2g\
2a\
2a\
=6
1b-
2b-\
2cc\
1g
1c
!!linebreak:original
=7
2r
2f/
2f/
2f/
2b-\
2g\
2a\
2a\
1b-
=8
2b-\
2cc\
1g
1e
1c
=9
!!linebreak:original
2r
2f/
2f/
2g\
2d/
2d/
2a\
2d/
=10
1d
2d/
2a\
4d/
4e/
4f/
4g\
0a
==
*-
!!title: @{OTL}, @{GTL}, ed. @{ENC}
!!!pag:
!!!GTL: Hymnbook D
!!!EFL: 
!!!YEM: Creative Commons CC/BY/NC/SA 4.0
!!!ENC: Marcin Konik
!!!END: 2015-0m-dd
!!!EED: Marcin Konik
!!!EEV: 
!!!ONB: Encoded in vim by Marcin Konik
!!!CharacterEncoding: utf-8
!!!RDF**kern: l=long note in original notation
!!!RDF**kern: i=editorial accidental
!!muse2ps: z14jc180F
!!!COM: Anonim
!!!CDT: [?]
!!!TXO: Polish
!!!ODT: 
!!!GTL: Hymnbook D
!!!ARL: Opactwo św. Wojciecha, Staniątki 
!!!voices:	1
